X:1
T:Title
%%score { ( 1 3 5 ) | ( 2 4 ) }
L:1/8
M:4/4
K:Ab
V:1 treble nm="Grand Piano"
V:3 treble 
V:5 treble 
V:2 bass 
V:4 bass 
V:1
 z4 z2[Q:1/4=86] [CA][DB] | [Ec]>[CE] [CE][_C=D] [=CE]2 [EA][EG] |[M:3/4] B>F F=E F2 | %3
[M:1/4] [FB][Fc] |[M:4/4] [Fd]>G GF Gd c>B |[M:3/4] c->[Ac-] [Gc-][Fc-] [Ec]2 |[M:1/4] [CA][DB] | %7
[M:4/4] [Ec]>[CE] [CE][_C=D] [=CE]2 [EA][EG] |[M:3/4] B>F F=E F2 |[M:1/4] [FB][Fc] | %10
[M:4/4] [Fd]>G GF G[Fd] [Ec]>[DB] |[M:3/4] A->[FA-] [EA-][DA-] [CA]2 |[M:1/4] c>d |[M:4/4] e6 z2 | %14
 z z/ E/- E4 z2 | A6 z2 |[M:9/8] B6- B z z |[M:3/4] ec [DB][Ec] [CA]2 |[M:1/4] [EA]B | %19
[M:4/4] c[EA]FA E2 A>B |[M:35/32] c3/2-c/4- c3- c3/4 z3 z/4 |[M:3/4] [CEA]6 |] %22
V:2
 z4 z2 [A,,E,][A,,E,] | [A,,A,]>[A,,A,] [A,,A,][A,,A,] [A,,A,]2 [C,A,][C,A,] | %2
[M:3/4] [D,F,D]>[D,B,D] [D,B,D][D,B,D] [D,B,D]2 |[M:1/4] [D,B,][C,=A,] | %4
[M:4/4] [B,,B,]>[E,B,D] [E,B,D][E,B,D] [E,B,D][E,G,F] [E,G,E]>[E,G,E] |[M:3/4] A,>C ED C2 | %6
[M:1/4] [A,,E,][A,,E,] |[M:4/4] [A,,A,]>[A,,A,] [A,,A,][A,,A,] [A,,A,]2 [C,A,][C,A,] | %8
[M:3/4] [D,F,D]>[D,B,D] [D,B,D][D,B,D] [D,B,D]2 |[M:1/4] [D,B,][C,=A,] | %10
[M:4/4] [B,,B,]>[E,B,D] [E,B,D][E,B,D] [E,B,D][E,G,] [E,G,]>G, |[M:3/4] z z/ D/ CB, A,2 | %12
[M:1/4] z2 |[M:4/4] z z/ [A,E]/ [A,D][A,C] [A,C]4 | z z/ A,,/ A,,[A,,A,] [A,,E,]2 z2 | %15
 z z/ [B,,F,]/ [B,,F,][B,,F,] [B,,F,]2 z2 | %16
[M:9/8] z z/ [E,G,]/[E,G,]- [E,G,]/[E,B,]/ [E,D]2- [E,D][A,CE]>[A,B,E] | %17
[M:3/4] [A,CE][A,E] [A,,A,][A,,A,] [A,,A,]2 |[M:1/4] [C,A,][E,G,E] | %19
[M:4/4] [A,E][C,A,][D,A,D][F,A,D] [A,C]2 z2 | %20
[M:35/32] z3/2 [E,A,]/[E,A,][E,A,][E,A,]>[E,CE][E,DE]-(3:2:4[E,DE]3/2-[E,DE]/4A,,3/4-A,,/8 | %21
[M:3/4] A,,6 |] %22
V:3
 x8 | x8 |[M:3/4] x6 |[M:1/4] x2 |[M:4/4] x8 |[M:3/4] E2 z2 z2 |[M:1/4] x2 |[M:4/4] x8 | %8
[M:3/4] x6 |[M:1/4] x2 |[M:4/4] x8 |[M:3/4] [A,C]2 z2 z2 |[M:1/4] x2 | %13
[M:4/4] z z/ c/ BA z z/ c/ BA | E>C [B,D]C C2 F>G | z z/ =D/ DD z z/ F/ G>A | %16
[M:9/8] z z/ E/E- E/G/ E2- Ec>d |[M:3/4] x6 |[M:1/4] x2 |[M:4/4] x8 | %20
[M:35/32] z3/2 E/EEE>AB-(3:2:4B3/2-B/4[CEA]3/4-[CEA]/8 |[M:3/4] x6 |] %22
V:4
 x8 | x8 |[M:3/4] x6 |[M:1/4] x2 |[M:4/4] x8 |[M:3/4] A,,6 |[M:1/4] x2 |[M:4/4] x8 |[M:3/4] x6 | %9
[M:1/4] x2 |[M:4/4] x8 |[M:3/4] A,,6 |[M:1/4] x2 |[M:4/4] x8 | x8 | x8 |[M:9/8] x9 |[M:3/4] x6 | %18
[M:1/4] x2 |[M:4/4] x8 |[M:35/32] x35/4 |[M:3/4] x6 |] %22
V:5
 x8 | x8 |[M:3/4] x6 |[M:1/4] x2 |[M:4/4] x8 |[M:3/4] x6 |[M:1/4] x2 |[M:4/4] x8 |[M:3/4] x6 | %9
[M:1/4] x2 |[M:4/4] x8 |[M:3/4] x6 |[M:1/4] x2 |[M:4/4] z4 E4 | x8 | z4 =D2 z2 |[M:9/8] x9 | %17
[M:3/4] x6 |[M:1/4] x2 |[M:4/4] x8 |[M:35/32] x35/4 |[M:3/4] x6 |] %22

